!!!COM: Anon.
!!!LAR: Arban, Jean-Baptiste
!!!OTL: Robin Adair
!!!OPR: The Art of Phrasing: 150 Classic and Popular Melodies
!!!ONM: No. 001
!!!OMD: Andante
**kern	**dynam
*ITromp	*
*ITrd1c2	*
*clefG2	*
*B-:	*
*k[b-e-]	*
*M3/4	*
=1	=1
!!LO:TX:i:a:t=dolce
(4f	p<
4g)	(
4a	[
=2	=2
(4.b-	>
8cc)	)
4dd,	]
=3	=3
(16fL	.
8.b-)J	.
(16gL	.
8.b-)J	.
(16aL	.
8.cc)J	.
=4	=4
2b-	.
4r	.
=5	=5
(4f	p<
4g)	(
4a	[
=6	=6
(4.b-$	>
8cc)	)
4dd,	]
=7	=7
(16fL	.
8.b-)J	.
(16gL	.
8.b-)J	.
(16aL	.
8.cc)J	.
=8	=8
2b-	.
4r	.
=9	=9
4dd	f<
4dd	(
4dd	[
=10	=10
(4.ff	>
8f)	)
4f,	]
=11	=11
4dd	<
(8ddL	(
8ff)J	[
(12ee-L	<
12cc)	)
12aJ	)
=12	=12
(4.b-	)
8g)	)
4f,	]
=13	=13
4ff	.
(8ee-L	<
8dd)J	)
8ccL	)
8b-J	]
=14	=14
(4.b-$	.
8cc)	.
4dd;,	.
=15	=15
(16fL	.
8.b-)J	.
(16gL	.
8.b-)J	.
(16aL	.
8.cc)J	.
=16	=16
2b-	.
4r	.
==|!	==|!
*-	*-
!!!OCL: Edwin Franko Goldman
!!!OCL: Walter M. Smith
!!!OCL: Claude Gordon
!!!YOR: Arban's Complete Conservatory Method for Trumpet/Cornet
!!!PPR: Carl Fischer
!!!PPP: New York, NY
!!!PDT: 1893///
!!!reprint: Carl Fischer, 1982: ISBN 0-8258-0385-3
!!!EFL: 1/150
!!!ENC: Hubert Léveillé Gauvin
!!!END: 2018/05/09/